src/WeatherTwentyOne/Resources/Images/fluent_weather_cloudy_20_filled.svg

<svg width="40" height="40" viewBox="0 0 40 40" fill="none" xmlns="http://www.w3.org/2000/svg">
<path d="M22.0001 14C26.9301 14 29.7261 17.148 30.1321 20.948H30.2561C33.4281 20.948 36.0001 23.422 36.0001 26.474C36.0001 29.526 33.4281 32 30.2561 32H13.7441C10.5721 32 8.00009 29.526 8.00009 26.474C8.00009 23.422 10.5721 20.948 13.7441 20.948H13.8681C14.2781 17.122 17.0701 14 22.0001 14ZM16.7841 8C19.6961 8 22.2361 9.656 23.4901 12.09C22.9957 12.0294 22.4981 11.9993 22.0001 12C17.2201 12 13.7361 14.614 12.4921 18.572L12.3681 19L12.2761 19.374L11.9461 19.434C10.7383 19.68 9.61019 20.2211 8.66237 21.0091C7.71456 21.7971 6.97652 22.8074 6.51409 23.95C5.56131 23.3695 4.8185 22.5003 4.39364 21.4686C3.96878 20.437 3.88402 19.2968 4.15168 18.2137C4.41933 17.1306 5.02545 16.161 5.88193 15.4461C6.7384 14.7311 7.8006 14.3079 8.91409 14.238L9.35809 14.228C9.6665 12.4827 10.5799 10.9017 11.9379 9.76282C13.2959 8.62389 15.0117 7.99976 16.7841 8V8Z" fill="url(#paint0_linear)"/>
<defs>
<linearGradient id="paint0_linear" x1="9.46325" y1="12.3391" x2="23.0129" y2="29.2755" gradientUnits="userSpaceOnUse">
<stop offset="0.10243" stop-color="#28C2D1"/>
<stop offset="0.925347" stop-color="#4931DE"/>
</linearGradient>
</defs>
</svg>

<svg width="40" height="40" fill="none" xmlns="http://www.w3.org/2000/svg">
    <path
        d="M22 14c4.93 0 7.726 3.148 8.132 6.948h.124c3.172 0 5.744 2.474 5.744 5.526C36 29.526 33.428 32 30.256 32H13.744C10.572 32 8 29.526 8 26.474c0-3.052 2.572-5.526 5.744-5.526h.124C14.278 17.122 17.07 14 22 14zm-5.216-6a7.542 7.542 0 016.706 4.09c-.494-.06-.992-.09-1.49-.09-4.78 0-8.264 2.614-9.508 6.572l-.124.428-.092.374-.33.06a7.468 7.468 0 00-5.432 4.516 5.244 5.244 0 012.4-9.712l.444-.01A7.54 7.54 0 0116.784 8z"
        fill="url(#prefix__paint0_linear)" />
    <defs>
        <linearGradient id="prefix__paint0_linear" x1="9.463" y1="12.339" x2="23.013" y2="29.276"
            gradientUnits="userSpaceOnUse">
            <stop offset=".102" stop-color="#28C2D1" />
            <stop offset=".925" stop-color="#4931DE" />
        </linearGradient>
    </defs>
</svg>
